svg/alphabet_piqad.svg

<svg xmlns="http://www.w3.org/2000/svg" viewBox="0 0 24 24"><path d="m13.04 4-6.5 13.85C6.21 18.55 5.5 19 4.73 19H4v1h12c1.2 0 2.27.54 3 1.39h1c-.95-2.07-3-3.39-5.3-3.39H12c-.71 0-1.38-.37-1.76-.97-.39-.6-.44-1.35-.14-2l.48-1.03H19v-1h-1.5c-2.21 0-4-1.79-4-4s1.79-4 4-4H20V4Z"/></svg>

<?xml version="1.0" encoding="UTF-8"?><!DOCTYPE svg PUBLIC "-//W3C//DTD SVG 1.1//EN" "http://www.w3.org/Graphics/SVG/1.1/DTD/svg11.dtd"><svg xmlns="http://www.w3.org/2000/svg" xmlns:xlink="http://www.w3.org/1999/xlink" version="1.1" id="mdi-alphabet-piqad" width="24" height="24" viewBox="0 0 24 24"><path d="M13.04 4L6.54 17.85C6.21 18.55 5.5 19 4.73 19H4V20H16C17.2 20 18.27 20.54 19 21.39H20C19.05 19.32 17 18 14.7 18H12C11.29 18 10.62 17.63 10.24 17.03C9.85 16.43 9.8 15.68 10.1 15.03L10.58 14H19V13H17.5C15.29 13 13.5 11.21 13.5 9C13.5 6.79 15.29 5 17.5 5H20V4Z" /></svg>
